X:5142
T:Favourite Hornpipe. JNu.03
M:4/4
L:1/8
Q:160
S:James Nuttall MS,c1830,Rossendale,East Lancs.
R:Hornpipe
O:England
A:East Lancashire
N:The triplets are not tied in the original, but I have added ties for
N:ease of reading..CGP
Z:vmp.Manchester Morris Men
K:A
ed|cBcd ecAe|fefg agag|ecAc ecAc|BGEG BGEG|!
ecAc ecAc|fefg agag|eafd cABG|A2A2A2::!
e2|a2 "NB" ((3fga) g2e2|a2 ((3fga) g2e2|
((3agf) ((3efg) ((3agf) ((3efg) | ((3agf) ((3edc) B2ed|!
dcBA cBAG|Aceg agag|egfd cABG|A2A2A2:||
